icons/midnadark/apps/48/CMakeSetup32.svg

<?xml version="1.0" encoding="UTF-8" standalone="no"?>
<!-- Created with Inkscape (http://www.inkscape.org/) -->

<svg
   xmlns:dc="http://purl.org/dc/elements/1.1/"
   xmlns:cc="http://creativecommons.org/ns#"
   xmlns:rdf="http://www.w3.org/1999/02/22-rdf-syntax-ns#"
   xmlns:svg="http://www.w3.org/2000/svg"
   xmlns="http://www.w3.org/2000/svg"
   xmlns:xlink="http://www.w3.org/1999/xlink"
   xmlns:sodipodi="http://sodipodi.sourceforge.net/DTD/sodipodi-0.dtd"
   xmlns:inkscape="http://www.inkscape.org/namespaces/inkscape"
   width="48"
   height="48"
   id="svg5453"
   version="1.1"
   inkscape:version="0.91 r13725"
   sodipodi:docname="cmake.svg">
  <defs
     id="defs5455">
    <linearGradient
       gradientTransform="matrix(0.84750837,-0.01168044,0.01168044,0.84750837,22.288376,-23.580268)"
       gradientUnits="userSpaceOnUse"
       y2="32.58942"
       x2="29.945402"
       y1="56.636845"
       x1="31.190088"
       id="linearGradient5459"
       xlink:href="#linearGradient4355"
       inkscape:collect="always" />
    <linearGradient
       inkscape:collect="always"
       id="linearGradient4355">
      <stop
         style="stop-color:#d5dbff;stop-opacity:1"
         offset="0"
         id="stop4357" />
      <stop
         style="stop-color:#f9ffff;stop-opacity:1"
         offset="1"
         id="stop4359" />
    </linearGradient>
    <linearGradient
       gradientUnits="userSpaceOnUse"
       y2="427.53772"
       x2="543.74268"
       y1="484.80768"
       x1="543.94849"
       id="linearGradient4496"
       xlink:href="#linearGradient4491-0"
       inkscape:collect="always"
       gradientTransform="matrix(0.5289354,0,0,0.5289354,-351.10893,-245.43498)" />
    <linearGradient
       id="linearGradient4491-0">
      <stop
         style="stop-color:#ff5b4f;stop-opacity:1"
         offset="0"
         id="stop4493-6" />
      <stop
         style="stop-color:#ff7369;stop-opacity:1"
         offset="1"
         id="stop4495-2" />
    </linearGradient>
    <linearGradient
       gradientUnits="userSpaceOnUse"
       y2="421.86777"
       x2="555.29846"
       y1="470.48056"
       x1="556.43549"
       id="linearGradient4496-9"
       xlink:href="#linearGradient4227-3"
       inkscape:collect="always"
       gradientTransform="matrix(0.52893541,0,0,0.52893541,-349.01853,-245.44065)" />
    <linearGradient
       id="linearGradient4227-3">
      <stop
         offset="0"
         style="stop-color:#566069;stop-opacity:1"
         id="stop4229-0" />
      <stop
         offset="1"
         style="stop-color:#6c7884;stop-opacity:1"
         id="stop4231-4" />
    </linearGradient>
  </defs>
  <sodipodi:namedview
     id="base"
     pagecolor="#ffffff"
     bordercolor="#666666"
     borderopacity="1.0"
     inkscape:pageopacity="0"
     inkscape:pageshadow="2"
     inkscape:zoom="4"
     inkscape:cx="-39.601104"
     inkscape:cy="15.968792"
     inkscape:document-units="px"
     inkscape:current-layer="g4370"
     showgrid="true"
     fit-margin-top="0"
     fit-margin-left="0"
     fit-margin-right="0"
     fit-margin-bottom="0"
     inkscape:window-width="1366"
     inkscape:window-height="634"
     inkscape:window-x="0"
     inkscape:window-y="36"
     inkscape:window-maximized="1"
     inkscape:showpageshadow="false"
     borderlayer="true"
     showguides="false">
    <inkscape:grid
       type="xygrid"
       id="grid4063" />
    <sodipodi:guide
       position="1.1650391e-05,32.000026"
       orientation="32,0"
       id="guide4157" />
    <sodipodi:guide
       position="1.1650391e-05,2.6367188e-05"
       orientation="0,32"
       id="guide4159" />
    <sodipodi:guide
       position="32.000012,2.6367188e-05"
       orientation="-32,0"
       id="guide4161" />
    <sodipodi:guide
       position="32.000012,32.000026"
       orientation="0,-32"
       id="guide4163" />
    <sodipodi:guide
       position="2.0000117,30.000026"
       orientation="28,0"
       id="guide4167" />
    <sodipodi:guide
       position="2.0000117,2.0000264"
       orientation="0,28"
       id="guide4169" />
    <sodipodi:guide
       position="30.000012,2.0000264"
       orientation="-28,0"
       id="guide4171" />
    <sodipodi:guide
       position="30.000012,30.000026"
       orientation="0,-28"
       id="guide4173" />
    <sodipodi:guide
       position="2.0000117,30.000026"
       orientation="28,0"
       id="guide4181" />
    <sodipodi:guide
       position="2.0000117,2.0000264"
       orientation="0,14"
       id="guide4183" />
    <sodipodi:guide
       position="16.000012,2.0000264"
       orientation="-28,0"
       id="guide4185" />
    <sodipodi:guide
       position="16.000012,30.000026"
       orientation="0,-14"
       id="guide4187" />
    <sodipodi:guide
       position="9.0000117,23.000026"
       orientation="14,0"
       id="guide4193" />
    <sodipodi:guide
       position="9.0000117,9.0000264"
       orientation="0,14.000031"
       id="guide4195" />
    <sodipodi:guide
       position="23.000042,9.0000264"
       orientation="-14,0"
       id="guide4197" />
    <sodipodi:guide
       position="23.000042,23.000026"
       orientation="0,-14.000031"
       id="guide4199" />
  </sodipodi:namedview>
  <metadata
     id="metadata5458">
    <rdf:RDF>
      <cc:Work
         rdf:about="">
        <dc:format>image/svg+xml</dc:format>
        <dc:type
           rdf:resource="http://purl.org/dc/dcmitype/StillImage" />
        <dc:title></dc:title>
      </cc:Work>
    </rdf:RDF>
  </metadata>
  <g
     inkscape:label="Capa 1"
     inkscape:groupmode="layer"
     id="layer1"
     transform="translate(-384.57143,-499.798)">
    <g
       style="display:inline;enable-background:new"
       id="g4238"
       transform="translate(225.81911,462.44565)">
      <g
         style="display:inline"
         id="layer1-8"
         transform="matrix(0.22655187,0,0,0.22655187,106.94841,54.31088)">
        <g
           style="display:none"
           id="layer6" />
        <g
           id="g4027" />
        <g
           id="g4061" />
        <g
           id="g3751" />
        <g
           id="g3782" />
        <g
           id="g3725" />
        <g
           id="g4370"
           transform="matrix(4.4140002,0,0,4.4140002,59.275211,39.357303)">
          <g
             id="g4251"
             transform="translate(9.5059266e-7,-4.9999982)">
            <rect
               ry="1.2165514"
               y="-19.86869"
               x="-82.299294"
               height="31.200085"
               width="40.627251"
               id="rect4473-3"
               style="opacity:1;fill:url(#linearGradient4496-9);fill-opacity:1;stroke:none;stroke-width:2.6671834;stroke-linecap:round;stroke-linejoin:round;stroke-miterlimit:4;stroke-dasharray:none;stroke-opacity:1"
               transform="matrix(-0.99998029,-0.00627818,-0.00627818,0.99998029,0,0)" />
            <rect
               ry="1.2165514"
               y="-19.863008"
               x="-84.389732"
               height="31.200085"
               width="40.627247"
               id="rect4473"
               style="opacity:1;fill:url(#linearGradient4496);fill-opacity:1;stroke:none;stroke-width:2.6671834;stroke-linecap:round;stroke-linejoin:round;stroke-miterlimit:4;stroke-dasharray:none;stroke-opacity:1"
               transform="matrix(-0.98432173,-0.17638237,-0.17638237,0.98432173,0,0)" />
            <path
               id="path4198"
               d="M 66.735313,-3.6014232 64.237286,12.971661 71.761204,18.251898 66.735313,-3.6014232 Z"
               style="opacity:0.85;fill:#ffffff;fill-opacity:0.8508065;fill-rule:evenodd;stroke:none;stroke-width:1px;stroke-linecap:butt;stroke-linejoin:miter;stroke-opacity:1"
               inkscape:connector-curvature="0" />
            <path
               sodipodi:nodetypes="cccc"
               id="path4198-8"
               d="M 65.795401,-3.4219412 52.070094,12.968948 64.270618,6.6982008 Z"
               style="opacity:0.85;fill:#ffffff;fill-opacity:0.8508065;fill-rule:evenodd;stroke:none;stroke-width:1px;stroke-linecap:butt;stroke-linejoin:miter;stroke-opacity:1"
               inkscape:connector-curvature="0" />
            <path
               sodipodi:nodetypes="ccccccccc"
               id="path4198-84"
               d="M 59.07377,10.264938 53.429381,14.2407 71.362202,18.888621 59.073759,10.264987 Z m -5.176232,4.021268 0.105295,-0.05035 -0.500224,-0.06955 z"
               style="opacity:0.85;fill:#ffffff;fill-opacity:0.8508065;fill-rule:evenodd;stroke:none;stroke-width:1px;stroke-linecap:butt;stroke-linejoin:miter;stroke-opacity:1"
               inkscape:connector-curvature="0" />
            <path
               inkscape:connector-curvature="0"
               id="path5451"
               d="M 48.698005,3.5909348 A 10.466615,10.466615 0 0 0 38.376002,14.201289 10.466615,10.466615 0 0 0 48.986354,24.52104 10.466615,10.466615 0 0 0 59.308358,13.91294 10.466615,10.466615 0 0 0 48.698005,3.5909348 Z m -3.081733,6.09138 7.708838,4.2441412 -7.52862,4.555018 -0.180217,-8.7991592 z"
               style="opacity:1;fill:url(#linearGradient5459);fill-opacity:1;stroke:none;stroke-width:0.30261195;stroke-linecap:round;stroke-linejoin:round;stroke-miterlimit:4;stroke-dasharray:none;stroke-opacity:1" />
          </g>
        </g>
      </g>
    </g>
  </g>
</svg>

<svg xmlns="http://www.w3.org/2000/svg" viewBox="0 0 48 48"><defs><linearGradient gradientUnits="userSpaceOnUse" y2="3.69" x2="48.05" y1="24.06" x1="49.38" id="0"><stop stop-color="#d5dbff"/><stop offset="1" stop-color="#f9ffff"/></linearGradient><linearGradient gradientUnits="userSpaceOnUse" y2="-19.295" x2="-63.5" y1="10.997" x1="-63.4" id="1"><stop stop-color="#ff5b4f"/><stop offset="1" stop-color="#ff7369"/></linearGradient><linearGradient gradientUnits="userSpaceOnUse" y2="-22.3" x2="-55.3" y1="3.413" x1="-54.7" id="2"><stop stop-color="#566069"/><stop offset="1" stop-color="#6c7884"/></linearGradient></defs><g transform="matrix(.99999 0 0 .99999-38.37 20.882)" enable-background="new"><rect y="-19.869" x="-82.3" height="31.2" width="40.627" transform="matrix(-.99998-.00628-.00628.99998 0 0)" fill="url(#2)" rx="1.217"/><rect y="-19.863" x="-84.39" height="31.2" width="40.627" transform="matrix(-.98432-.17638-.17638.98432 0 0)" fill="url(#1)" rx="1.217"/><g fill="#fff" fill-rule="evenodd" fill-opacity=".851"><path d="m66.735-3.601l-2.498 16.573 7.524 5.28-5.03-21.853" opacity=".85"/><path d="m65.795-3.422l-13.725 16.391 12.201-6.271" opacity=".85"/><path d="m59.07 10.265l-5.644 3.976 17.933 4.648-12.288-8.624m-5.176 4.02l.105-.05-.5-.07z" opacity=".85"/></g><path d="M48.698005 3.590935A10.466615 10.466615 0 0 0 38.376 14.201289 10.466615 10.466615 0 0 0 48.986354 24.52104 10.466615 10.466615 0 0 0 59.30836 13.91294 10.466615 10.466615 0 0 0 48.698005 3.590935m-3.082 6.091l7.709 4.244-7.529 4.555-.18-8.799z" fill="url(#0)"/></g></svg>
